icons/chart-death-rate-stable_fill.svg

<svg width="48" height="48" viewBox="0 0 48 48" fill="none" xmlns="http://www.w3.org/2000/svg">
<path d="M17 18C18.1046 18 19 17.1046 19 16C19 14.8954 18.1046 14 17 14C15.8954 14 15 14.8954 15 16C15 17.1046 15.8954 18 17 18Z" fill="black"/>
<path d="M25.0695 16.1067C25.0705 17.2702 24.1281 18.2142 22.9645 18.2151C21.801 18.2161 20.857 17.2737 20.8561 16.1101C20.8551 14.9466 21.7976 14.0026 22.9611 14.0017C24.1246 14.0007 25.0686 14.9432 25.0695 16.1067Z" fill="black"/>
<path fill-rule="evenodd" clip-rule="evenodd" d="M14.4615 21.8347C14 21.8347 12.6154 21.3825 12.6154 19.3476C12.6154 18.5425 12.3625 18.1622 12.0569 17.7024C11.59 17.0001 11 16.1125 11 13.243C11 3.58566 29 3.58566 29 13.243C29 16.1125 28.41 17.0001 27.9431 17.7024C27.6375 18.1622 27.3846 18.5425 27.3846 19.3476C27.3846 21.3825 25.5769 21.8347 25.5385 21.8347C25.5 21.8347 24.9231 23.1912 24.9231 24.0956C24.9231 25 22.3077 25 20 25C17.6923 25 15.0769 25 15.0769 24.0956C15.0769 23.1912 14.9231 21.8347 14.4615 21.8347ZM14.6874 19.8307C14.6898 19.8363 14.6922 19.8414 14.6944 19.8459C15.7743 19.9517 16.3246 20.7757 16.4964 21.0817C16.7214 21.4825 16.8347 21.9096 16.8986 22.21C16.947 22.438 16.9837 22.6761 17.0107 22.9125C17.7989 22.9971 18.8542 23 20 23C21.1836 23 22.2706 22.9969 23.0664 22.9038C23.1431 22.5546 23.2377 22.2402 23.3169 21.9999C23.4077 21.7243 23.5021 21.4764 23.5828 21.2847C23.6217 21.1923 23.6662 21.092 23.7126 20.9993C23.7324 20.9598 23.7731 20.8801 23.8285 20.7913C23.8512 20.755 23.9154 20.6532 24.0136 20.5384C24.0596 20.4847 24.1647 20.3664 24.3236 20.2452C24.3971 20.1892 24.6558 19.9932 25.0558 19.8937L25.0621 19.891C25.1078 19.8716 25.1685 19.8392 25.2224 19.7958C25.2721 19.7559 25.3039 19.7168 25.3254 19.6752C25.3431 19.641 25.3846 19.548 25.3846 19.3476C25.3846 17.8638 26.0422 16.9175 26.3528 16.4705C26.4041 16.3966 26.446 16.3364 26.4738 16.2896C26.6474 15.9981 27 15.3589 27 13.243C27 11.5415 26.2439 10.3101 25.0239 9.4374C23.7446 8.52225 21.9261 8 20 8C18.0739 8 16.2554 8.52225 14.9761 9.4374C13.7561 10.3101 13 11.5415 13 13.243C13 15.3589 13.3526 15.9981 13.5262 16.2896C13.554 16.3364 13.5959 16.3966 13.6472 16.4705C13.9578 16.9175 14.6154 17.8638 14.6154 19.3476C14.6154 19.6272 14.6623 19.7707 14.6849 19.8248C14.6857 19.8268 14.6865 19.8288 14.6874 19.8307Z" fill="black"/>
<path d="M18.9251 31.6207C20.1554 31.2147 21.5241 31 22.9198 31C24.3154 31 25.6842 31.2148 26.9146 31.6207L30.5867 32.8317C32.9233 33.6019 35.4878 33.9996 38.08 34H39.3663L36.2927 37.0748C35.9023 37.4654 35.9024 38.0986 36.293 38.489C36.6836 38.8795 37.3168 38.8793 37.7073 38.4887L42.4873 33.7067C42.8776 33.3162 42.8776 32.6833 42.4873 32.2928L37.7073 27.5108C37.3168 27.1202 36.6836 27.1201 36.293 27.5105C35.9024 27.901 35.9023 28.5341 36.2927 28.9247L39.3667 32H38.08C35.6874 31.9996 33.3353 31.6318 31.2128 30.9323L27.541 29.7213C26.0963 29.2447 24.5151 29 22.9198 29C21.3246 29 19.743 29.2448 18.2985 29.7213L14.6268 30.9283C12.5754 31.6044 10.3096 31.9706 8 31.9947V6H6V41C6 41.5523 6.44772 42 7 42H42V40H8V33.9948C10.5101 33.9707 12.9886 33.574 15.2528 32.8277L18.9251 31.6207Z" fill="black"/>
</svg>

<svg
  xmlns="http://www.w3.org/2000/svg"
  width="24"
  height="24"
  viewBox="0 0 24 24"
  fill="none"
  stroke="currentColor"
  stroke-width="2"
  stroke-linecap="round"
  stroke-linejoin="round"
>
  <path d="M17 18a2 2 0 1 0 0-4 2 2 0 0 0 0 4" />
  <path d="M25.07 16.107a2.107 2.107 0 1 1-4.214.003 2.107 2.107 0 0 1 4.214-.003" />
  <path
    fill-rule="evenodd"
    d="M14.462 21.835c-.462 0-1.847-.453-1.847-2.487 0-.805-.252-1.186-.558-1.646C11.59 17 11 16.112 11 13.243c0-9.657 18-9.657 18 0 0 2.87-.59 3.757-1.057 4.46-.306.46-.558.84-.558 1.645 0 2.035-1.808 2.487-1.847 2.487s-.615 1.356-.615 2.26C24.923 25 22.308 25 20 25s-4.923 0-4.923-.904c0-.905-.154-2.261-.616-2.261m.225-2.004.007.015c1.08.106 1.63.93 1.802 1.236.225.4.339.828.403 1.128.048.228.085.466.112.703.788.084 1.843.087 2.989.087 1.184 0 2.27-.003 3.066-.096a9.756 9.756 0 0 1 .516-1.62 5 5 0 0 1 .13-.285 2.102 2.102 0 0 1 .611-.754c.074-.056.333-.252.733-.351l.006-.003a.7.7 0 0 0 .16-.095.4.4 0 0 0 .103-.12c.018-.035.06-.128.06-.328 0-1.484.657-2.43.968-2.877q.078-.112.12-.181c.174-.292.527-.931.527-3.047 0-1.702-.756-2.933-1.976-3.806C23.744 8.522 21.926 8 20 8s-3.745.522-5.024 1.437C13.756 10.31 13 11.542 13 13.243c0 2.116.353 2.755.526 3.047q.043.07.121.18c.31.448.968 1.394.968 2.878 0 .28.047.423.07.477z"
    clip-rule="evenodd"
  />
  <path d="M18.925 31.62c1.23-.405 2.6-.62 3.995-.62s2.764.215 3.995.62l3.672 1.212c2.336.77 4.9 1.168 7.493 1.168h1.286l-3.073 3.075a1 1 0 0 0 1.414 1.414l4.78-4.782a1 1 0 0 0 0-1.414l-4.78-4.782a1 1 0 0 0-1.414 1.414L39.367 32H38.08c-2.393 0-4.745-.368-6.867-1.068l-3.672-1.21A14.9 14.9 0 0 0 22.92 29a14.9 14.9 0 0 0-4.622.721l-3.671 1.207c-2.052.676-4.317 1.043-6.627 1.067V6H6v35a1 1 0 0 0 1 1h35v-2H8v-6.005c2.51-.024 4.989-.421 7.253-1.167z" />
</svg>
